build/img/0-common/vk.svg

<svg width="25" height="25" viewBox="0 0 25 25" fill="none" xmlns="http://www.w3.org/2000/svg">
<path d="M12.5 0C5.59667 0 0 5.59642 0 12.5C0 19.4036 5.59667 25 12.5 25C19.4033 25 25 19.4036 25 12.5C25 5.59642 19.4033 0 12.5 0ZM18.8407 13.8519C19.4233 14.421 20.0396 14.9565 20.5627 15.5844C20.7944 15.8621 21.0128 16.1494 21.179 16.4724C21.4164 16.933 21.202 17.4381 20.7898 17.4655L18.2289 17.465C17.5675 17.5197 17.0412 17.2529 16.5974 16.8008C16.2432 16.4404 15.9146 16.0555 15.5734 15.6829C15.434 15.5299 15.2872 15.3859 15.1123 15.2726C14.7632 15.0455 14.4598 15.1151 14.2598 15.4798C14.056 15.8509 14.0095 16.2621 13.99 16.6752C13.9621 17.279 13.7801 17.4368 13.1742 17.4652C11.8795 17.5258 10.6512 17.3294 9.50946 16.6767C8.5023 16.101 7.72276 15.2885 7.04348 14.3685C5.72072 12.5752 4.70767 10.6069 3.79744 8.5821C3.59258 8.12609 3.74246 7.8821 4.24552 7.87263C5.08133 7.85652 5.91714 7.85857 6.75294 7.87187C7.09309 7.87724 7.31816 8.07187 7.44885 8.39284C7.90051 9.50409 8.45422 10.5614 9.14808 11.5419C9.33299 11.8031 9.52174 12.0634 9.79054 12.2478C10.0872 12.4514 10.3133 12.3841 10.4532 12.0529C10.5427 11.8425 10.5813 11.6174 10.6008 11.3918C10.6673 10.6192 10.6752 9.8468 10.5601 9.07724C10.4885 8.59565 10.2176 8.28465 9.7376 8.19361C9.49309 8.14731 9.5289 8.05678 9.64783 7.91714C9.85422 7.6757 10.0476 7.52634 10.434 7.52634L13.3274 7.52583C13.7834 7.61535 13.8857 7.81995 13.9476 8.27928L13.9501 11.4946C13.9448 11.6724 14.0394 12.1992 14.3586 12.3156C14.6143 12.4 14.7831 12.1949 14.9361 12.033C15.6299 11.2967 16.1243 10.4276 16.567 9.52813C16.7624 9.13146 16.9309 8.72097 17.0946 8.30972C17.2164 8.00563 17.4056 7.85601 17.7488 7.86112L20.535 7.86445C20.6171 7.86445 20.7005 7.86522 20.7818 7.87928C21.2514 7.95959 21.3801 8.16164 21.2348 8.61969C21.0061 9.33939 20.5619 9.93887 20.1276 10.5399C19.6621 11.1834 19.1657 11.8043 18.7049 12.4506C18.2813 13.0414 18.3148 13.3389 18.8407 13.8519Z" fill="#333333"/>
</svg>

<svg width="25" height="25" fill="none" xmlns="http://www.w3.org/2000/svg"><path d="M12.5 0C5.597 0 0 5.596 0 12.5S5.597 25 12.5 25 25 19.404 25 12.5 19.403 0 12.5 0zm6.34 13.852c.583.569 1.2 1.104 1.723 1.732.231.278.45.565.616.888.237.461.023.966-.39.993h-2.56c-.662.055-1.188-.212-1.632-.664-.354-.36-.682-.745-1.024-1.118a2.394 2.394 0 00-.46-.41c-.35-.227-.653-.158-.853.207-.204.37-.25.782-.27 1.195-.028.604-.21.762-.816.79-1.294.06-2.523-.136-3.665-.788-1.007-.576-1.786-1.388-2.466-2.309-1.322-1.793-2.335-3.761-3.246-5.786-.204-.456-.055-.7.449-.71a71.264 71.264 0 012.507 0c.34.005.565.2.696.52a15.558 15.558 0 001.7 3.15c.184.261.373.521.642.706.296.203.522.136.662-.195.09-.21.128-.436.148-.661.066-.773.074-1.545-.04-2.315-.072-.481-.343-.792-.823-.883-.245-.047-.21-.137-.09-.277.206-.241.4-.39.786-.39l2.893-.001c.456.09.559.294.62.753l.003 3.216c-.005.177.09.704.409.82.255.085.424-.12.577-.282.694-.736 1.188-1.605 1.631-2.505.195-.397.364-.807.528-1.218.121-.304.31-.454.654-.449l2.786.003c.082 0 .166.001.247.015.47.08.598.283.453.74-.229.72-.673 1.32-1.107 1.92-.466.644-.962 1.265-1.423 1.912-.424.59-.39.888.136 1.4z" fill="#333"/></svg>
